X: 25583
T: Market House, The
R: jig
M: 6/8
K: Eminor
|:~E3 GFE|edB GFE|DEF GFE|~F3 AFD|
[1 ~E3 GFE|edB GFE|GAB dBG|ABA FED:|
[2 ~G3 GAB|dBA GFE|cBA GFE|FED E2d||
|:g2g gfe|~B3 GFE|Add ede|fdd Add|
[1 g2g gfe|~B3 GFE|~B3 dBB|eBB fBB:|
[2 efe ded|BdB AGF|cBA GFE|FED E2D||

